dist/svg/static/parking-out-left-long-small.svg

<svg xmlns="http://www.w3.org/2000/svg" width="24" height="24" viewBox="0 0 24 24"><g fill="none" stroke="currentColor" stroke-miterlimit="10"><path d="M11.5 0v2.5h8c1.1 0 2 .9 2 2v15c0 1.1-.9 2-2 2h-8V24"/><path d="M15.5 18v-3.5c0-2.8-2.2-5-5-5h-1c-2.8 0-5-2.2-5-5v-3"/><path d="M1 5l3.5-3.5L8 5"/></g></svg>

<?xml version="1.0" encoding="UTF-8" standalone="no"?>
<svg width="24px" height="24px" viewBox="0 0 24 24" version="1.1" xmlns="http://www.w3.org/2000/svg" xmlns:xlink="http://www.w3.org/1999/xlink">
    <!-- Generator: sketchtool 46.2 (44496) - http://www.bohemiancoding.com/sketch -->
    <title>parking-out-left-long-small</title>
    <desc>Created with sketchtool.</desc>
    <defs></defs>
    <g id="icons-published" stroke="none" stroke-width="1" fill="none" fill-rule="evenodd">
        <g id="briefing" transform="translate(-2084.000000, -1178.000000)"></g>
        <g id="parking-out-left-long-small" stroke="#000000">
            <path d="M11.5,0 L11.5,2.5 L19.5,2.5 C20.6,2.5 21.5,3.4 21.5,4.5 L21.5,19.5 C21.5,20.6 20.6,21.5 19.5,21.5 L11.5,21.5 L11.5,24" id="Shape"></path>
            <path d="M15.5,18 L15.5,14.5 C15.5,11.7 13.3,9.5 10.5,9.5 L9.5,9.5 C6.7,9.5 4.5,7.3 4.5,4.5 L4.5,1.5" id="Shape"></path>
            <polyline id="Shape" points="1 5 4.5 1.5 8 5"></polyline>
        </g>
    </g>
</svg>
